assets/svg/gem-o.svg

<?xml version="1.0" encoding="UTF-8"?>
<svg width="1000px" height="1000px" viewBox="0 0 1000 1000" version="1.1" xmlns="http://www.w3.org/2000/svg" xmlns:xlink="http://www.w3.org/1999/xlink">
    <!-- Generator: sketchtool 52.4 (67378) - http://www.bohemiancoding.com/sketch -->
    <title>gem-o</title>
    <desc>Created with sketchtool.</desc>
    <g id="新版图标" stroke="none" stroke-width="1" fill="none" fill-rule="evenodd">
        <g id="gem-o" fill="#323233" fill-rule="nonzero">
            <g id="圆角—积分商城2-线">
                <path d="M626.490123,361.111111 L556.547403,166.666667 L419.808812,166.666667 L363.201257,361.111111 L626.490123,361.111111 Z M627.19232,416.666667 L361.590226,416.666667 L499.085341,756.698096 L627.19232,416.666667 Z M685.530494,361.111111 L876.332756,361.111111 L799.04485,166.666667 L615.587774,166.666667 L685.530494,361.111111 Z M686.559894,416.666667 L562.142529,746.904839 L854.371065,416.666667 L686.559894,416.666667 Z M301.66468,416.666667 L146.419874,416.666667 L433.971818,743.868002 L301.66468,416.666667 Z M305.339312,361.111111 L361.946868,166.666667 L200.198506,166.666667 L124.413984,361.111111 L305.339312,361.111111 Z M181.211865,111.111111 L817.895383,111.111111 C829.275868,111.111111 839.505139,118.052891 843.708767,128.628568 L942.70019,377.675714 C946.570236,387.412153 944.632605,398.49781 937.689304,406.344214 L519.905967,878.467872 C509.739411,889.956774 492.184193,891.028747 480.695291,880.86219 C479.8255,880.092511 479.004838,879.269037 478.238138,878.396619 L63.29434,406.237875 C56.4446367,398.443694 54.5101053,387.481617 58.2781799,377.813664 L155.330373,128.801604 C159.487756,118.134783 169.763507,111.111111 181.211865,111.111111 Z" id="Combined-Shape"></path>
            </g>
        </g>
    </g>
</svg>

<svg width="1000" height="1000" xmlns="http://www.w3.org/2000/svg"><path d="M626.49 361.111l-69.943-194.444H419.81L363.2 361.11h263.29zm.702 55.556H361.59l137.495 340.031 128.107-340.031zm58.338-55.556h190.803l-77.288-194.444H615.588L685.53 361.11zm1.03 55.556L562.143 746.905 854.37 416.667H686.56zm-384.895 0H146.42l287.552 327.201-132.307-327.201zm3.674-55.556l56.608-194.444H200.199L124.414 361.11h180.925zm-124.127-250h636.683c11.38 0 21.61 6.942 25.814 17.518L942.7 377.676a27.778 27.778 0 0 1-5.01 28.668L519.905 878.468c-10.167 11.489-27.722 12.56-39.21 2.394-.87-.77-1.691-1.593-2.458-2.465L63.294 406.237a27.778 27.778 0 0 1-5.016-28.423l97.052-249.012a27.778 27.778 0 0 1 25.882-17.69z" fill="#323233" fill-rule="nonzero"/></svg>
